**kern
*clefF4
*k[]
*M4/4
=1
*^
2r	2.C 2.C
2E 2G#X	.
.	4BB 4D
*v	*v
=2
1AA 1C 1E 1A
=3||
1E
=4
*^
2E 2G#X	2C 2C
2F 2A	2FF 2C
=5||	=5||
[1E [1G#X	2r
.	2C
=6	=6
*	*^
2G#]	2E] 2E	1BB
2A	2D#X 2F#X	.
*v	*v	*v
=7
1EE 1E 1E 1G#X
=8||
*^
2G	1C 1E 1E
2G#X	.
*v	*v
=9
1C#X 1E 1E 1A
=10||
*^
1EE 1E 1G#X	2BB
.	2C
*v	*v
!!linebreak:original
=11
1EE 1BB 1E 1Gn
=12||
*^
1E 1E 1c	2G
.	2G#X
=13	=13
2G#X 2c#X	2C#X 2E
2G# 2d#X	2BB#X 2D#X
=14	=14
2G#X 2e	2C#X 2C#
2r	2r
=15||	=15||
1EE 1E 1c	2G
.	2G#X
*v	*v
=16
1DD 1F 1A 1d
=17
*^
1GG 1G 1B	2D
.	2D#X
*v	*v
=18
1CC 1E 1G 1c
==
*-
!!!system-decoration: [(s1
